icons/query-24.svg

<?xml version="1.0" encoding="UTF-8"?><svg id="icons" xmlns="http://www.w3.org/2000/svg" viewBox="0 0 24 24"><defs><style>.cls-1{fill:none;}.cls-1,.cls-2{stroke-width:0px;}</style></defs><rect class="cls-1" width="24" height="24"/><path class="cls-2" d="M12.5,2c-4.7207,0-9.5,1.03027-9.5,3v5.69745c.39746-.10284.57538-.16534,1-.18402v-4.10199c1.64313,1.04572,5.08203,1.58856,8.5,1.58856s6.85687-.54285,8.5-1.58856v3.43622c0,.87793-3.31152,2.15234-8.5,2.15234-1.55078,0-2.92932-.11542-4.10645-.29852.38873.3327.7345.71313,1.02783,1.13373.99579.10516,2.03503.16479,3.07861.16479,3.41797,0,6.85687-.57068,8.5-1.66943v6.24854c0,.97754-3.2334,2.3418-8.5,2.3418-.63708,0-1.24286-.02081-1.81836-.05762l1.0459,1.0459c.2572.00684.51483.01172.77246.01172,4.7207,0,9.491-1.38966,9.491-3.584l.009-12.3369c0-1.96973-4.7793-3-9.5-3ZM12.5,7c-5.5,0-8.5-1.32129-8.5-2s3-2,8.5-2,8.5,1.32129,8.5,2-3,2-8.5,2ZM7.92645,19.22925c.59998-.75201.97357-1.69244.97357-2.72925,0-2.43005-1.97003-4.40002-4.40002-4.40002S.09998,14.06995.09998,16.5s1.96997,4.39996,4.40002,4.39996c1.04041,0,1.9837-.37622,2.73694-.97992l3.08423,3.08423c.18561.18561.48645.18591.67242.00067l.01709-.01703c.08954-.08917.13995-.21033.14008-.33673s-.04999-.24762-.1394-.33704l-3.0849-3.0849ZM1.1001,16.50006c0-1.87457,1.52545-3.40002,3.40002-3.40002s3.40002,1.52545,3.40002,3.40002-1.52545,3.39996-3.40002,3.39996-3.40002-1.52545-3.40002-3.39996Z"/></svg>

<svg xmlns="http://www.w3.org/2000/svg" viewBox="0 0 24 24"><path stroke-width="0" fill="none" d="M0 0h24v24H0z"/><path d="M12.5 2C7.78 2 3 3.03 3 5v5.697c.397-.102.575-.165 1-.184V6.411C5.643 7.457 9.082 8 12.5 8s6.857-.543 8.5-1.589v3.437C21 10.726 17.688 12 12.5 12c-1.55 0-2.93-.115-4.106-.299.388.333.734.714 1.027 1.134A29.52 29.52 0 0 0 12.5 13c3.418 0 6.857-.57 8.5-1.67v6.25c0 .977-3.233 2.34-8.5 2.34-.637 0-1.243-.02-1.818-.057l1.046 1.046c.257.007.514.012.772.012 4.72 0 9.491-1.39 9.491-3.584L22 5c0-1.97-4.78-3-9.5-3zm0 5C7 7 4 5.679 4 5s3-2 8.5-2S21 4.321 21 5s-3 2-8.5 2zM7.926 19.23c.6-.753.974-1.693.974-2.73a4.4 4.4 0 1 0-4.4 4.4c1.04 0 1.984-.376 2.737-.98l3.084 3.084a.476.476 0 0 0 .673 0l.017-.016a.476.476 0 0 0 0-.674L7.926 19.23zM1.1 16.5c0-1.875 1.526-3.4 3.4-3.4s3.4 1.525 3.4 3.4-1.525 3.4-3.4 3.4-3.4-1.525-3.4-3.4z" stroke-width="0"/></svg>
